X: 1
T: Tegnap vettem
T: "Yesterday I bought ..."
O: Hungary
C: Trad.
Z: Aubrey Jaffer http://swissnet.ai.mit.edu/~jaffer/CFO.html
M: 4/4
L: 1/8
K: Em
D: From "Hungarian Folk Dances" Qualiton LPX-18007
K: D
|:"Em"eeee "E"eefe |"D"f/e/ddf d/c/d/e/ "A"fe  |"Bm"dcB2 Be"B"Bz |
K: Em
 "Am"eeAA "D"AAcA |"G"BBGG    G/F/G/A/ "Bm"BA |"Em"GFE2 EAEz :|
P: TK
K: D
L:1/8
|:"E"eeee "E"eefe |"D"ffdd "Em"d/c/d/e/ "F#"fe  |"G"dcB2 "A"Be"B"B2 |
K: Em
 "Am"eeAA "A"AABA |"G"BBGG    G/F/G/A/ "B"BA |"C"GFE2 "D"EA"Em"E2 :|
